X: 40460
T: Tom Sullivan's
R: polka
M: 2/4
K: Dmixolydian
D>E|:FG AB|c/B/A B/A/G|Ad d^c|d2 de|
f/e/d ~ed|^cA AB|c/B/A GE|1 D2 D>E:|2 D2 De||
~fd ~ed|^cA A2|fd e/d/^c|d2 d2|
~fd ~ed|^cA AB|c/B/A GE|D2 D>e|
~fd ~ed|^cA A2|fd ef|g2 a>g|
~fd ~ed|^cA AB|c/B/A GE|D2||

